X: 16825
T: Harvest Fair
R: polka
M: 2/4
K: Amajor
|:ec d>f|ec dc|B2 ed|Bc df|
ec df|ec dc|B2 ed|BA A'>f:|
|:ec eA'|g3A'|f2 fg|fe cd|
ec eA'|fd fA'|gB' e>g|B'A' A'>f:|

